X:26
T: DER MAI IST GEKOMMEN
N: B0512
O: Europa, Mitteleuropa, Deutschland
R: Wander - Lied
M: 3/4
L: 1/16
K: F
F2G2 | A4A6B2 | d4c6
A2 | c3BB4c4 | A8
F2G2 | A4A6B2 | d4c6
A2 | c3BB4c4 | A8
A3A | G4c6c2 | =B4d6
d2 | g3fe3dc3=B | c8
c2B2 | A3AA6B2 | d4c6
A2 | c3BB4c4 | A8

